svg/fluentui-system-icons/ic_fluent_folder_arrow_right_48_regular.svg

<svg width="48" height="48" viewBox="0 0 48 48" fill="none" xmlns="http://www.w3.org/2000/svg">
<path d="M17.0607 9C17.8933 9 18.7 9.27703 19.3552 9.78393L19.5301 9.92784L22.1162 12.1907C22.3061 12.3569 22.5409 12.4609 22.7891 12.4909L22.9393 12.5H40.25C42.2543 12.5 43.8913 14.0724 43.9948 16.0508L44 16.25L44.0009 24.0564C43.2472 23.3816 42.4076 22.8008 41.5007 22.3322L41.5 16.25C41.5 15.6028 41.0081 15.0705 40.3778 15.0065L40.25 15L22.8474 14.9989L20.7205 17.6147C20.0559 18.4327 19.0803 18.9305 18.035 18.9933L17.8101 19L6.5 18.999V35.25C6.5 35.8972 6.99187 36.4295 7.62219 36.4935L7.75 36.5L24.5186 36.5005C24.7868 37.3812 25.1535 38.219 25.606 39.0011L7.75 39C5.74574 39 4.10873 37.4276 4.0052 35.4492L4 35.25V12.75C4 10.7457 5.57236 9.10873 7.55084 9.0052L7.75 9H17.0607ZM17.0607 11.5H7.75C7.10279 11.5 6.57047 11.9919 6.50645 12.6222L6.5 12.75V16.499L17.8101 16.5C18.1394 16.5 18.4534 16.3701 18.6858 16.142L18.7802 16.0382L20.415 14.025L17.8838 11.8093C17.6939 11.6431 17.4591 11.5391 17.2109 11.5091L17.0607 11.5ZM36 23C41.5228 23 46 27.4772 46 33C46 38.5228 41.5228 43 36 43C30.4772 43 26 38.5228 26 33C26 27.4772 30.4772 23 36 23ZM35.9991 27.6342L35.8871 27.7097L35.7929 27.7929L35.7097 27.8871C35.4301 28.2467 35.4301 28.7533 35.7097 29.1129L35.7929 29.2071L38.585 32H31L30.8834 32.0067C30.4243 32.0601 30.06 32.4243 30.0067 32.8834L30 33L30.0067 33.1166C30.06 33.5757 30.4243 33.9399 30.8834 33.9933L31 34H38.585L35.7929 36.7929L35.7097 36.8871C35.4047 37.2794 35.4324 37.8466 35.7929 38.2071C36.1534 38.5676 36.7206 38.5953 37.1129 38.2903L37.2071 38.2071L41.7071 33.7071L41.7578 33.6525L41.8296 33.5585L41.8751 33.4843L41.9063 33.4232L41.9503 33.3121L41.9726 33.2335L41.9932 33.1175L42 33L41.997 32.924L41.9798 32.7992L41.9505 32.6883L41.9288 32.6287L41.8753 32.5159L41.8296 32.4415L41.7872 32.3833L41.7485 32.3369L41.7071 32.2929L37.2071 27.7929L37.1129 27.7097C36.7893 27.4581 36.3465 27.4329 35.9991 27.6342Z" fill="#212121"/>
</svg>

<svg xmlns="http://www.w3.org/2000/svg" width="48" height="48"><path d="M17.06 9c.833 0 1.64.277 2.295.784l.175.144 2.586 2.263c.19.166.425.27.673.3l.15.009H40.25a3.75 3.75 0 0 1 3.745 3.55l.005.2v7.806a12.024 12.024 0 0 0-2.5-1.724V16.25a1.25 1.25 0 0 0-1.122-1.243L40.25 15l-17.403-.001-2.127 2.616a3.75 3.75 0 0 1-2.685 1.378L17.81 19 6.5 18.999V35.25c0 .647.492 1.18 1.122 1.243l.128.007h16.769c.268.881.635 1.719 1.087 2.501L7.75 39a3.75 3.75 0 0 1-3.745-3.55L4 35.25v-22.5a3.75 3.75 0 0 1 3.55-3.745L7.75 9h9.31Zm0 2.5H7.75a1.25 1.25 0 0 0-1.244 1.122l-.006.128v3.749l11.31.001c.33 0 .643-.13.876-.358l.094-.104 1.635-2.013-2.531-2.216a1.25 1.25 0 0 0-.673-.3l-.15-.009ZM36 23c5.523 0 10 4.477 10 10s-4.477 10-10 10-10-4.477-10-10 4.477-10 10-10Zm0 4.634-.113.076-.094.083-.083.094a1 1 0 0 0 0 1.226l.083.094L38.585 32H31l-.117.007a1 1 0 0 0-.876.876L30 33l.007.117a1 1 0 0 0 .876.876L31 34h7.585l-2.792 2.793-.083.094a1 1 0 0 0 1.403 1.403l.094-.083 4.5-4.5.05-.054.073-.094.045-.075.031-.06.044-.112.023-.078.02-.117L42 33l-.003-.076-.017-.125-.03-.11-.021-.06-.054-.113-.045-.075-.043-.058-.038-.046-.042-.044-4.5-4.5-.094-.083a1.001 1.001 0 0 0-1.114-.076Z"/></svg>
